X:1
T: Breakdown
T: 2nd setting
R:Reel
Q: 232
K:A
M:4/4
L:1/8
a2 A2 Ac BA|E2 A2 Ac BA|F2 B2 Bc BA|GA Bc de fg|a2 A2 Ac BA|E2 A2 Ac BA|GA Bc de fg|a4 z2 ((3efg)|
a2 A2 Ac BA|E2 A2 Ac BA|F2 B2 Bc BA|GA Bc de fg|a2 A2 Ac BA|E2 A2 Ac BA|GA Bc de fg|a6 cB|
A2 a2 A2 aa|A2 AB cB A2|E2 e2 EE e2|E2 Bc dc B2|A2 a2 AA aa|A2 AB cB A2|E2 Bc ed cB|A2 c2 A2 e2|
ce e2 ce e2|df f2 df f2|ce e2 ce e2|d2 B2 B2 e2|ce e2 ce e2|df f2 df f2|e2 gf ed cB|A6 z2||
